X:22
T:Lumire sur mes pas - H26-37
C:J. Akepsimas
M:C
L:1/8
K:Cm
"^Refrain"z4z2zC|GG GGA2zA|FF FFG4|E2E2F2F2|D6zC|
GG GGA2zA|FF FFG4|E2E2D2D2|C8||[M:2/4]"^Couplets"CD EF|[M:3/4]E2B,2zB,|
[M:C]AA GGF4|[M:2/4]CD EF|[M:3/4]E2B,2zB,|[M:C]AA GGF4|
zF GG EE AA|G4zG cc|B2zBG2B2|c4zG cc|B2zBG2B2|c6z2||
